X: 41591
T: Up And Over
R: reel
M: 4/4
K: Dmajor
A2 DE FGAB|=cAed ^cdeg|f2 (3gfe agec|d2 AF GEAG|
F2 DE FGAB|=cAed ^cdeg|agec d2 (3FGA|G2 ed (3cBA GE|
A2 (3FGA defd|edce dcAB|cAAG (3FGA df|edce dcAB|
A2 (3FGA defd|edce dcAB|c2 (3EFG ABcd|e2 dB cAGE||

